svgs/thin/bridge.svg

<svg xmlns="http://www.w3.org/2000/svg" viewBox="0 0 576 512"><!--! Font Awesome Pro 6.6.0 by @fontawesome - https://fontawesome.com License - https://fontawesome.com/license (Commercial License) Copyright 2024 Fonticons, Inc. --><path d="M8 32c-4.4 0-8 3.6-8 8s3.6 8 8 8l80 0 0 96L8 144c-4.4 0-8 3.6-8 8s3.6 8 8 8l560 0c4.4 0 8-3.6 8-8s-3.6-8-8-8l-80 0 0-96 80 0c4.4 0 8-3.6 8-8s-3.6-8-8-8L8 32zM472 48l0 96-112 0 0-96 112 0zM344 48l0 96-112 0 0-96 112 0zM216 48l0 96-112 0 0-96 112 0zM8 256c-4.4 0-8 3.6-8 8s3.6 8 8 8l24 0c39.8 0 72 32.2 72 72l0 96c0 22.1 17.9 40 40 40l32 0c22.1 0 40-17.9 40-40l0-96c0-39.8 32.2-72 72-72s72 32.2 72 72l0 96c0 22.1 17.9 40 40 40l32 0c22.1 0 40-17.9 40-40l0-96c0-39.8 32.2-72 72-72l24 0c4.4 0 8-3.6 8-8s-3.6-8-8-8l-24 0c-48.6 0-88 39.4-88 88l0 96c0 13.3-10.7 24-24 24l-32 0c-13.3 0-24-10.7-24-24l0-96c0-48.6-39.4-88-88-88s-88 39.4-88 88l0 96c0 13.3-10.7 24-24 24l-32 0c-13.3 0-24-10.7-24-24l0-96c0-48.6-39.4-88-88-88L8 256z"/></svg>

<svg xmlns="http://www.w3.org/2000/svg" viewBox="0 0 576 512"><!--! Font Awesome Pro 6.4.0 by @fontawesome - https://fontawesome.com License - https://fontawesome.com/license (Commercial License) Copyright 2023 Fonticons, Inc. --><path d="M8 32c-4.4 0-8 3.6-8 8s3.6 8 8 8H88v96H8c-4.4 0-8 3.6-8 8s3.6 8 8 8H568c4.4 0 8-3.6 8-8s-3.6-8-8-8H488V48h80c4.4 0 8-3.6 8-8s-3.6-8-8-8H8zM472 48v96H360V48H472zM344 48v96H232V48H344zM216 48v96H104V48H216zM8 256c-4.4 0-8 3.6-8 8s3.6 8 8 8H32c39.8 0 72 32.2 72 72v96c0 22.1 17.9 40 40 40h32c22.1 0 40-17.9 40-40V344c0-39.8 32.2-72 72-72s72 32.2 72 72v96c0 22.1 17.9 40 40 40h32c22.1 0 40-17.9 40-40V344c0-39.8 32.2-72 72-72h24c4.4 0 8-3.6 8-8s-3.6-8-8-8H544c-48.6 0-88 39.4-88 88v96c0 13.3-10.7 24-24 24H400c-13.3 0-24-10.7-24-24V344c0-48.6-39.4-88-88-88s-88 39.4-88 88v96c0 13.3-10.7 24-24 24H144c-13.3 0-24-10.7-24-24V344c0-48.6-39.4-88-88-88H8z"/></svg>
